dist/img/svg/insta-icon-revi.svg

<svg width="18" height="19" viewBox="0 0 18 19" fill="none" xmlns="http://www.w3.org/2000/svg">
<path opacity="0.6" d="M5.58594 6.33594C6.47135 5.45052 7.53906 5.00781 8.78906 5.00781C10.0391 5.00781 11.0938 5.45052 11.9531 6.33594C12.8385 7.19531 13.2812 8.25 13.2812 9.5C13.2812 10.75 12.8385 11.8177 11.9531 12.7031C11.0938 13.5625 10.0391 13.9922 8.78906 13.9922C7.53906 13.9922 6.47135 13.5625 5.58594 12.7031C4.72656 11.8177 4.29688 10.75 4.29688 9.5C4.29688 8.25 4.72656 7.19531 5.58594 6.33594ZM6.71875 11.5703C7.29167 12.1432 7.98177 12.4297 8.78906 12.4297C9.59635 12.4297 10.2865 12.1432 10.8594 11.5703C11.4323 10.9974 11.7188 10.3073 11.7188 9.5C11.7188 8.69271 11.4323 8.0026 10.8594 7.42969C10.2865 6.85677 9.59635 6.57031 8.78906 6.57031C7.98177 6.57031 7.29167 6.85677 6.71875 7.42969C6.14583 8.0026 5.85938 8.69271 5.85938 9.5C5.85938 10.3073 6.14583 10.9974 6.71875 11.5703ZM14.1797 4.10938C14.388 4.29167 14.4922 4.52604 14.4922 4.8125C14.4922 5.09896 14.388 5.34635 14.1797 5.55469C13.9974 5.76302 13.763 5.86719 13.4766 5.86719C13.1901 5.86719 12.9427 5.76302 12.7344 5.55469C12.526 5.34635 12.4219 5.09896 12.4219 4.8125C12.4219 4.52604 12.526 4.29167 12.7344 4.10938C12.9427 3.90104 13.1901 3.79688 13.4766 3.79688C13.763 3.79688 13.9974 3.90104 14.1797 4.10938ZM17.5 5.90625C17.526 6.60938 17.5391 7.80729 17.5391 9.5C17.5391 11.1927 17.526 12.3906 17.5 13.0938C17.4219 14.6823 16.9401 15.9193 16.0547 16.8047C15.1953 17.6641 13.9714 18.1198 12.3828 18.1719C11.6797 18.224 10.4818 18.25 8.78906 18.25C7.09635 18.25 5.89844 18.224 5.19531 18.1719C3.60677 18.0938 2.38281 17.625 1.52344 16.7656C1.1849 16.4531 0.911458 16.0885 0.703125 15.6719C0.494792 15.2552 0.338542 14.8516 0.234375 14.4609C0.15625 14.0703 0.117188 13.6146 0.117188 13.0938C0.0651042 12.3906 0.0390625 11.1927 0.0390625 9.5C0.0390625 7.80729 0.0651042 6.59635 0.117188 5.86719C0.195312 4.30469 0.664062 3.09375 1.52344 2.23438C2.38281 1.34896 3.60677 0.867188 5.19531 0.789062C5.89844 0.763021 7.09635 0.75 8.78906 0.75C10.4818 0.75 11.6797 0.763021 12.3828 0.789062C13.9714 0.867188 15.1953 1.34896 16.0547 2.23438C16.9401 3.09375 17.4219 4.31771 17.5 5.90625ZM15.625 14.6562C15.7031 14.4479 15.7682 14.1875 15.8203 13.875C15.8724 13.5365 15.9115 13.1458 15.9375 12.7031C15.9635 12.2344 15.9766 11.8568 15.9766 11.5703C15.9766 11.2839 15.9766 10.8802 15.9766 10.3594C15.9766 9.83854 15.9766 9.55208 15.9766 9.5C15.9766 9.42188 15.9766 9.13542 15.9766 8.64062C15.9766 8.11979 15.9766 7.71615 15.9766 7.42969C15.9766 7.14323 15.9635 6.77865 15.9375 6.33594C15.9115 5.86719 15.8724 5.47656 15.8203 5.16406C15.7682 4.82552 15.7031 4.55208 15.625 4.34375C15.3125 3.53646 14.7526 2.97656 13.9453 2.66406C13.737 2.58594 13.4635 2.52083 13.125 2.46875C12.8125 2.41667 12.4219 2.3776 11.9531 2.35156C11.5104 2.32552 11.1458 2.3125 10.8594 2.3125C10.599 2.3125 10.1953 2.3125 9.64844 2.3125C9.1276 2.3125 8.84115 2.3125 8.78906 2.3125C8.73698 2.3125 8.45052 2.3125 7.92969 2.3125C7.40885 2.3125 7.00521 2.3125 6.71875 2.3125C6.43229 2.3125 6.05469 2.32552 5.58594 2.35156C5.14323 2.3776 4.7526 2.41667 4.41406 2.46875C4.10156 2.52083 3.84115 2.58594 3.63281 2.66406C2.82552 2.97656 2.26562 3.53646 1.95312 4.34375C1.875 4.55208 1.8099 4.82552 1.75781 5.16406C1.70573 5.47656 1.66667 5.86719 1.64062 6.33594C1.61458 6.77865 1.60156 7.14323 1.60156 7.42969C1.60156 7.6901 1.60156 8.09375 1.60156 8.64062C1.60156 9.16146 1.60156 9.44792 1.60156 9.5C1.60156 9.60417 1.60156 9.85156 1.60156 10.2422C1.60156 10.6068 1.60156 10.9193 1.60156 11.1797C1.60156 11.4141 1.60156 11.7266 1.60156 12.1172C1.6276 12.5078 1.65365 12.8464 1.67969 13.1328C1.70573 13.3932 1.74479 13.6667 1.79688 13.9531C1.84896 14.2396 1.90104 14.474 1.95312 14.6562C2.29167 15.4635 2.85156 16.0234 3.63281 16.3359C3.84115 16.4141 4.10156 16.4792 4.41406 16.5312C4.7526 16.5833 5.14323 16.6224 5.58594 16.6484C6.05469 16.6745 6.41927 16.6875 6.67969 16.6875C6.96615 16.6875 7.36979 16.6875 7.89062 16.6875C8.4375 16.6875 8.73698 16.6875 8.78906 16.6875C8.86719 16.6875 9.15365 16.6875 9.64844 16.6875C10.1693 16.6875 10.5729 16.6875 10.8594 16.6875C11.1458 16.6875 11.5104 16.6745 11.9531 16.6484C12.4219 16.6224 12.8125 16.5833 13.125 16.5312C13.4635 16.4792 13.737 16.4141 13.9453 16.3359C14.7526 15.9974 15.3125 15.4375 15.625 14.6562Z" fill="url(#paint0_linear)"/>
<defs>
<linearGradient id="paint0_linear" x1="15.5" y1="4" x2="6.24725" y2="17.8791" gradientUnits="userSpaceOnUse">
<stop stop-color="#4F5BD5"/>
<stop offset="0.234375" stop-color="#962FBF"/>
<stop offset="0.5" stop-color="#D62976"/>
<stop offset="0.755208" stop-color="#FA7E1E"/>
<stop offset="1" stop-color="#FEDA75"/>
</linearGradient>
</defs>
</svg>

<svg width="18" height="19" viewBox="0 0 18 19" fill="none" xmlns="http://www.w3.org/2000/svg"><path opacity=".6" d="M5.586 6.336c.885-.885 1.953-1.328 3.203-1.328 1.25 0 2.305.443 3.164 1.328.886.86 1.328 1.914 1.328 3.164 0 1.25-.443 2.318-1.328 3.203-.86.86-1.914 1.29-3.164 1.29-1.25 0-2.318-.43-3.203-1.29-.86-.885-1.29-1.953-1.29-3.203 0-1.25.43-2.305 1.29-3.164zm1.133 5.234c.573.573 1.263.86 2.07.86a2.82 2.82 0 002.07-.86c.573-.573.86-1.263.86-2.07 0-.807-.287-1.497-.86-2.07a2.822 2.822 0 00-2.07-.86c-.807 0-1.497.287-2.07.86a2.822 2.822 0 00-.86 2.07c0 .807.287 1.497.86 2.07zm7.46-7.46a.892.892 0 01.313.702c0 .287-.104.534-.312.743a.892.892 0 01-.703.312c-.287 0-.534-.104-.743-.312a1.014 1.014 0 01-.312-.742c0-.287.104-.521.312-.704.209-.208.456-.312.743-.312.286 0 .52.104.703.312zM17.5 5.905c.026.703.04 1.901.04 3.594 0 1.693-.014 2.89-.04 3.594-.078 1.588-.56 2.825-1.445 3.71-.86.86-2.084 1.316-3.672 1.368-.703.052-1.901.078-3.594.078-1.693 0-2.89-.026-3.594-.078-1.588-.078-2.812-.547-3.672-1.406a3.77 3.77 0 01-.82-1.094 6.413 6.413 0 01-.469-1.211 7.04 7.04 0 01-.117-1.367C.065 12.39.04 11.193.04 9.5s.026-2.904.078-3.633c.078-1.562.547-2.773 1.406-3.633C2.383 1.35 3.607.867 5.195.79 5.898.763 7.096.75 8.79.75c1.693 0 2.89.013 3.594.04 1.588.077 2.812.559 3.672 1.444.885.86 1.367 2.084 1.445 3.672zm-1.875 8.75a4.26 4.26 0 00.195-.781c.052-.338.091-.73.117-1.172.027-.469.04-.846.04-1.133v-4.14c0-.287-.014-.651-.04-1.094-.025-.469-.065-.86-.117-1.172a4.236 4.236 0 00-.195-.82 2.82 2.82 0 00-1.68-1.68 4.233 4.233 0 00-.82-.195 11.053 11.053 0 00-1.172-.117c-.443-.026-.807-.04-1.094-.04H6.72c-.287 0-.664.014-1.133.04a12.7 12.7 0 00-1.172.117 4.255 4.255 0 00-.781.195 2.82 2.82 0 00-1.68 1.68 4.234 4.234 0 00-.195.82 11.08 11.08 0 00-.117 1.172c-.026.443-.04.807-.04 1.094v4.687c.027.39.053.73.079 1.016a10.348 10.348 0 00.273 1.523c.339.807.899 1.367 1.68 1.68.208.078.469.143.781.195.339.052.73.091 1.172.117.469.026.833.04 1.094.04h4.179c.287 0 .651-.014 1.094-.04.469-.026.86-.065 1.172-.117.338-.052.612-.117.82-.195.808-.339 1.367-.898 1.68-1.68z" fill="url(#paint0_linear)"/><defs><linearGradient id="paint0_linear" x1="15.5" y1="4" x2="6.247" y2="17.879" gradientUnits="userSpaceOnUse"><stop stop-color="#4F5BD5"/><stop offset=".234" stop-color="#962FBF"/><stop offset=".5" stop-color="#D62976"/><stop offset=".755" stop-color="#FA7E1E"/><stop offset="1" stop-color="#FEDA75"/></linearGradient></defs></svg>
